svgs/monet_generator.svg

<svg xmlns="http://www.w3.org/2000/svg" height="48" width="48"><path d="M24 44q-4.1 0-7.75-1.575-3.65-1.575-6.375-4.3-2.725-2.725-4.3-6.375Q4 28.1 4 24q0-4.25 1.6-7.9 1.6-3.65 4.375-6.35 2.775-2.7 6.5-4.225Q20.2 4 24.45 4q3.95 0 7.5 1.325T38.175 9q2.675 2.35 4.25 5.575Q44 17.8 44 21.65q0 5.4-3.15 8.525T32.5 33.3h-3.75q-.9 0-1.55.7t-.65 1.55q0 1.35.725 2.3.725.95.725 2.2 0 1.9-1.05 2.925T24 44Zm0-20Zm-11.65 1.3q1 0 1.75-.75t.75-1.75q0-1-.75-1.75t-1.75-.75q-1 0-1.75.75t-.75 1.75q0 1 .75 1.75t1.75.75Zm6.3-8.5q1 0 1.75-.75t.75-1.75q0-1-.75-1.75t-1.75-.75q-1 0-1.75.75t-.75 1.75q0 1 .75 1.75t1.75.75Zm10.7 0q1 0 1.75-.75t.75-1.75q0-1-.75-1.75t-1.75-.75q-1 0-1.75.75t-.75 1.75q0 1 .75 1.75t1.75.75Zm6.55 8.5q1 0 1.75-.75t.75-1.75q0-1-.75-1.75t-1.75-.75q-1 0-1.75.75t-.75 1.75q0 1 .75 1.75t1.75.75ZM24 41q.55 0 .775-.225.225-.225.225-.725 0-.7-.725-1.3-.725-.6-.725-2.65 0-2.3 1.5-4.05t3.8-1.75h3.65q3.8 0 6.15-2.225Q41 25.85 41 21.65q0-6.6-5-10.625T24.45 7q-7.3 0-12.375 4.925T7 24q0 7.05 4.975 12.025Q16.95 41 24 41Z"/></svg>

<svg xmlns="http://www.w3.org/2000/svg" height="48" width="48"><path d="M24 44Q19.9 44 16.25 42.425Q12.6 40.85 9.875 38.125Q7.15 35.4 5.575 31.75Q4 28.1 4 24Q4 19.75 5.6 16.1Q7.2 12.45 9.975 9.75Q12.75 7.05 16.475 5.525Q20.2 4 24.45 4Q28.4 4 31.95 5.325Q35.5 6.65 38.175 9Q40.85 11.35 42.425 14.575Q44 17.8 44 21.65Q44 27.05 40.85 30.175Q37.7 33.3 32.5 33.3H28.75Q27.85 33.3 27.2 34Q26.55 34.7 26.55 35.55Q26.55 36.9 27.275 37.85Q28 38.8 28 40.05Q28 41.95 26.95 42.975Q25.9 44 24 44ZM24 24Q24 24 24 24Q24 24 24 24Q24 24 24 24Q24 24 24 24Q24 24 24 24Q24 24 24 24Q24 24 24 24Q24 24 24 24Q24 24 24 24Q24 24 24 24Q24 24 24 24Q24 24 24 24Q24 24 24 24Q24 24 24 24ZM12.35 25.3Q13.35 25.3 14.1 24.55Q14.85 23.8 14.85 22.8Q14.85 21.8 14.1 21.05Q13.35 20.3 12.35 20.3Q11.35 20.3 10.6 21.05Q9.85 21.8 9.85 22.8Q9.85 23.8 10.6 24.55Q11.35 25.3 12.35 25.3ZM18.65 16.8Q19.65 16.8 20.4 16.05Q21.15 15.3 21.15 14.3Q21.15 13.3 20.4 12.55Q19.65 11.8 18.65 11.8Q17.65 11.8 16.9 12.55Q16.15 13.3 16.15 14.3Q16.15 15.3 16.9 16.05Q17.65 16.8 18.65 16.8ZM29.35 16.8Q30.35 16.8 31.1 16.05Q31.85 15.3 31.85 14.3Q31.85 13.3 31.1 12.55Q30.35 11.8 29.35 11.8Q28.35 11.8 27.6 12.55Q26.85 13.3 26.85 14.3Q26.85 15.3 27.6 16.05Q28.35 16.8 29.35 16.8ZM35.9 25.3Q36.9 25.3 37.65 24.55Q38.4 23.8 38.4 22.8Q38.4 21.8 37.65 21.05Q36.9 20.3 35.9 20.3Q34.9 20.3 34.15 21.05Q33.4 21.8 33.4 22.8Q33.4 23.8 34.15 24.55Q34.9 25.3 35.9 25.3ZM24 41Q24.55 41 24.775 40.775Q25 40.55 25 40.05Q25 39.35 24.275 38.75Q23.55 38.15 23.55 36.1Q23.55 33.8 25.05 32.05Q26.55 30.3 28.85 30.3H32.5Q36.3 30.3 38.65 28.075Q41 25.85 41 21.65Q41 15.05 36 11.025Q31 7 24.45 7Q17.15 7 12.075 11.925Q7 16.85 7 24Q7 31.05 11.975 36.025Q16.95 41 24 41Z"/></svg>
